X: 42
T:The New Year's Resolution
% Nottingham Music Database
S:Bob McQuillen Jan 1975, via PR
M:4/4
L:1/4
K:G
D|"G"G3/2A/2 "D7"BA|"G"GD GB|"Am"A3/2B/2 cB|"D7"AD FA|"G"B3/2c/2 dc|
"G"BG "D7"Ac|"G"BA "D7"GF|"G"G2 "D7"D2|"G"G3/2A/2 "D7"BA|"G"GD GB|\
"Am"A3/2B/2 cB|
"D7"AD FA|"G"B3/2c/2 dc|"G"BG "D7"Ac|"G"B2 "D7"A2|"G"G2 Bc||
"G"d3/2e/2 "D7"dc|"G"BG Bd|"Am"c3/2d/2 cB|"D7"AD FA|"G"B3/2c/2 BA|
"Em"GA BG|"A7"Ag fe|"D7"dc Bc|"G"d3/2e/2 "D7"dc|"G"BG Bd|
"Am"c3/2d/2 cB|"D7"AD FA|"G"BG "Am"cA|"G"Bd "C"ed/2c/2|"G"B2 "D7"A2|"G"G3||<end>
<start>
